polaris-icons/icons/new-icons/DiamondAlertMajor.svg

<svg width="20" height="20" viewBox="0 0 20 20" fill="none" xmlns="http://www.w3.org/2000/svg">
<path d="M10 6C10.4142 6.00001 10.75 6.3358 10.75 6.75001L10.7499 10.25C10.7499 10.6642 10.4141 11 9.99993 11C9.58572 11 9.24994 10.6642 9.24994 10.25L9.25 6.74999C9.25001 6.33577 9.5858 5.99999 10 6Z" fill="#4A4A4A"/>
<path d="M11 13C11 13.5523 10.5523 14 10 14C9.44772 14 9 13.5523 9 13C9 12.4477 9.44772 12 10 12C10.5523 12 11 12.4477 11 13Z" fill="#4A4A4A"/>
<path fill-rule="evenodd" clip-rule="evenodd" d="M11.2374 3.17663C10.554 2.49321 9.44598 2.49321 8.76257 3.17663L3.17678 8.76241C2.49336 9.44583 2.49336 10.5539 3.17678 11.2373L8.76257 16.8231C9.44598 17.5065 10.554 17.5065 11.2374 16.8231L16.8232 11.2373C17.5066 10.5539 17.5066 9.44583 16.8232 8.76241L11.2374 3.17663ZM9.82323 4.23729C9.92086 4.13965 10.0791 4.13966 10.1768 4.23729L15.7626 9.82307C15.8602 9.9207 15.8602 10.079 15.7626 10.1766L10.1768 15.7624C10.0791 15.86 9.92086 15.86 9.82323 15.7624L4.23744 10.1766C4.13981 10.079 4.13981 9.9207 4.23744 9.82307L9.82323 4.23729Z" fill="#4A4A4A"/>
</svg>

<svg viewBox="0 0 20 20" xmlns="http://www.w3.org/2000/svg"><path d="M10 6a.75.75 0 0 1 .75.75v3.5a.75.75 0 0 1-1.5 0v-3.5a.75.75 0 0 1 .75-.75Z" fill="#5C5F62"/><path d="M11 13a1 1 0 1 1-2 0 1 1 0 0 1 2 0Z" fill="#5C5F62"/><path fill-rule="evenodd" d="M11.237 3.177a1.75 1.75 0 0 0-2.474 0l-5.586 5.585a1.75 1.75 0 0 0 0 2.475l5.586 5.586a1.75 1.75 0 0 0 2.474 0l5.586-5.586a1.75 1.75 0 0 0 0-2.475l-5.586-5.585Zm-1.414 1.06a.25.25 0 0 1 .354 0l5.586 5.586a.25.25 0 0 1 0 .354l-5.586 5.585a.25.25 0 0 1-.354 0l-5.586-5.585a.25.25 0 0 1 0-.354l5.586-5.586Z" fill="#5C5F62"/></svg>
